public/images/cy3.svg

<svg width="100" height="100" viewBox="0 0 100 100" fill="none" xmlns="http://www.w3.org/2000/svg">
<path d="M19.1228 52.9024C19.1228 55.4296 18.2345 57.3796 16.4425 58.846C14.6505 60.3124 12.1261 61.0456 8.88488 61.0456C5.87741 61.0456 3.27508 60.4684 1 59.3296V53.7916C2.86993 54.6028 4.49054 55.258 5.79949 55.5856C7.10844 55.9132 8.3239 56.0692 9.38353 56.0692C10.6925 56.0692 11.6586 55.8196 12.391 55.336C13.1234 54.8524 13.4506 54.1192 13.4506 53.1364C13.4506 52.5592 13.2948 52.0756 12.9676 51.67C12.6403 51.2644 12.2352 50.8588 11.5807 50.4532C10.9262 50.0476 9.78868 49.3924 7.99666 48.5812C6.28256 47.77 4.98919 47.0368 4.17888 46.3036C3.36858 45.5704 2.63619 44.6812 2.15312 43.6984C1.67006 42.7156 1.42073 41.5768 1.42073 40.282C1.42073 37.8328 2.23104 35.8828 3.94514 34.4944C5.65925 33.106 7.90316 32.3884 10.8327 32.3884C12.2975 32.3884 13.6844 32.5444 14.9777 32.872C16.2711 33.1996 17.658 33.6832 19.1228 34.3384L17.2528 38.8936C15.788 38.2384 14.5726 37.8328 13.5909 37.5832C12.6092 37.3336 11.643 37.2556 10.7392 37.2556C9.60168 37.2556 8.79138 37.5052 8.13691 38.0668C7.48243 38.6284 7.24869 39.2836 7.24869 40.0948C7.24869 40.5784 7.3266 41.0776 7.57593 41.4832C7.82525 41.8888 8.2304 42.2164 8.71347 42.622C9.19653 43.0276 10.5055 43.6048 12.4533 44.572C15.0557 45.7888 16.8477 47.0992 17.8138 48.316C18.7799 49.5328 19.1228 51.124 19.1228 52.9024Z" fill="#2D2D2D"/>
<path d="M23.4393 33.8548C23.4393 31.9828 24.499 31 26.6182 31C28.7375 31 29.7971 31.9828 29.7971 33.8548C29.7971 34.744 29.5478 35.4772 28.9868 35.9764C28.4258 36.4756 27.6778 36.7096 26.6338 36.7096C24.499 36.7096 23.4393 35.7268 23.4393 33.8548ZM29.5322 60.7336H23.751V39.3148H29.5322V60.7336Z" fill="#2D2D2D"/>
<path d="M45.2396 61.0456C41.827 61.0456 39.1468 60.0628 37.1833 58.1908C35.2355 56.3188 34.2538 53.6356 34.2538 50.1256C34.2538 46.5376 35.142 43.7764 36.934 41.8264C38.726 39.8764 41.157 38.8936 44.3358 38.8936C47.3433 38.8936 49.6963 39.7828 51.3325 41.4988C52.9531 43.2148 53.8569 45.5704 53.8569 48.5812V51.4516H40.1908C40.2687 53.074 40.7674 54.3844 41.6556 55.3672C42.5438 56.35 43.8528 56.7556 45.4734 56.7556C46.7823 56.7556 47.9978 56.5996 49.1353 56.35C50.2729 56.1004 51.4883 55.6168 52.7194 55.0396V59.5168C51.6597 60.0004 50.6001 60.406 49.4626 60.6556C48.325 60.8896 46.9382 61.0456 45.2396 61.0456ZM44.4293 43.0588C43.2139 43.0588 42.2322 43.4644 41.4998 44.1976C40.7674 44.9308 40.3622 46.0696 40.2843 47.536H48.4185C48.4185 46.0696 48.0134 45.0088 47.281 44.1976C46.5486 43.3864 45.6448 43.0588 44.4293 43.0588Z" fill="#2D2D2D"/>
<path d="M77.1999 39.3148V42.2476L73.8652 43.1368C74.5196 44.1196 74.7534 45.1648 74.7534 46.3192C74.7534 48.5968 73.9431 50.3908 72.4004 51.6856C70.8577 52.996 68.5826 53.6356 65.731 53.6356L64.6713 53.5576L63.7831 53.4796C63.2066 53.9632 62.8949 54.4624 62.8949 55.024C62.8949 55.8352 63.9545 56.2408 66.0738 56.2408H69.7357C72.0887 56.2408 73.8807 56.7244 75.0962 57.7852C76.3117 58.846 76.9661 60.2344 76.9661 62.1844C76.9661 64.7116 75.9065 66.5836 73.8807 67.972C71.855 69.3604 68.8319 70 64.9362 70C61.9288 70 59.7316 69.5164 58.111 68.4556C56.4904 67.3948 55.758 65.9284 55.758 64.0564C55.758 62.746 56.1631 61.7008 56.9734 60.796C57.7838 59.9068 58.9213 59.3296 60.464 58.924C59.8874 58.6744 59.3264 58.2688 58.9213 57.7072C58.5161 57.13 58.2668 56.4904 58.2668 55.8352C58.2668 55.024 58.5161 54.3688 58.9992 53.8072C59.4823 53.23 60.1368 52.7464 61.025 52.1848C59.8874 51.7012 58.9992 50.968 58.3447 49.8292C57.6903 48.6904 57.363 47.4736 57.363 46.0852C57.363 43.7296 58.0954 41.9356 59.6381 40.7188C61.1808 39.502 63.3001 38.8468 66.1517 38.8468C66.7283 38.8468 67.4606 38.9248 68.271 39.0028C69.0813 39.0808 69.6578 39.1588 69.8136 39.2524H77.2155V39.3148H77.1999ZM60.7756 63.7444C60.7756 64.5556 61.1808 65.2108 61.9132 65.6164C62.6456 66.022 63.7831 66.2716 65.17 66.2716C67.2892 66.2716 68.9098 65.944 70.0474 65.3824C71.1849 64.8052 71.8394 63.994 71.8394 63.0268C71.8394 62.2156 71.5122 61.6384 70.7798 61.4044C70.0474 61.0768 68.9878 60.9208 67.523 60.9208H64.5155C63.4559 60.9208 62.5677 61.1704 61.8353 61.654C61.1029 62.1376 60.7756 62.8396 60.7756 63.7444ZM62.8793 46.3192C62.8793 47.458 63.1286 48.3472 63.6896 49.0804C64.2662 49.8136 64.9986 50.0632 66.1361 50.0632C67.1957 50.0632 68.006 49.7356 68.5826 49.0804C69.1592 48.4252 69.315 47.458 69.315 46.3192C69.315 43.714 68.2554 42.4972 66.1361 42.4972C63.9389 42.4816 62.8793 43.792 62.8793 46.3192Z" fill="#2D2D2D"/>
<path d="M90.3673 61.0456C86.9547 61.0456 84.2745 60.0628 82.311 58.1908C80.3632 56.3188 79.3815 53.6356 79.3815 50.1256C79.3815 46.5376 80.2697 43.7764 82.0617 41.8264C83.8537 39.8764 86.2846 38.8936 89.4635 38.8936C92.471 38.8936 94.824 39.7828 96.4602 41.4988C98.0964 43.2148 99.0002 45.586 99.0002 48.5968V51.4516H85.2562C85.3341 53.074 85.8327 54.3844 86.721 55.3672C87.6092 56.35 88.9181 56.7556 90.5387 56.7556C91.8477 56.7556 93.0631 56.5996 94.2007 56.35C95.3382 56.1004 96.5537 55.6168 97.7847 55.0396V59.5168C96.7251 60.0004 95.6655 60.406 94.5279 60.6556C93.3904 60.8896 92.0814 61.0456 90.3673 61.0456ZM89.557 43.0588C88.3416 43.0588 87.3598 43.4644 86.6274 44.1976C85.8951 44.9308 85.4899 46.0696 85.412 47.536H93.5462C93.5462 46.0696 93.141 45.0088 92.4087 44.1976C91.6763 43.3864 90.7881 43.0588 89.557 43.0588Z" fill="#2D2D2D"/>
</svg>

<svg xmlns="http://www.w3.org/2000/svg" width="100" height="100" fill="none"><path fill="#2D2D2D" d="M19.123 52.902c0 2.528-.889 4.478-2.68 5.944-1.793 1.466-4.317 2.2-7.558 2.2-3.008 0-5.61-.578-7.885-1.716v-5.538c1.87.81 3.49 1.466 4.8 1.794 1.308.327 2.524.483 3.584.483 1.309 0 2.275-.25 3.007-.733.732-.484 1.06-1.217 1.06-2.2 0-.577-.156-1.06-.483-1.466a5.3 5.3 0 0 0-1.387-1.217c-.655-.405-1.792-1.06-3.584-1.872-1.714-.811-3.008-1.544-3.818-2.277s-1.543-1.623-2.026-2.606-.732-2.121-.732-3.416c0-2.45.81-4.4 2.524-5.788s3.958-2.106 6.888-2.106c1.464 0 2.851.156 4.145.484s2.68.811 4.145 1.466l-1.87 4.556c-1.465-.656-2.68-1.061-3.662-1.31s-1.948-.328-2.852-.328c-1.137 0-1.948.25-2.602.81-.655.562-.888 1.218-.888 2.029 0 .483.078.983.327 1.388.25.406.654.733 1.137 1.139.484.406 1.793.983 3.74 1.95 2.603 1.217 4.395 2.527 5.36 3.744.967 1.217 1.31 2.808 1.31 4.586M23.44 33.855c0-1.872 1.059-2.855 3.178-2.855 2.12 0 3.18.983 3.18 2.855 0 .889-.25 1.622-.811 2.121-.561.5-1.31.734-2.353.734-2.135 0-3.195-.983-3.195-2.855m6.092 26.879h-5.781v-21.42h5.781zM45.24 61.046c-3.413 0-6.093-.983-8.057-2.855-1.947-1.872-2.93-4.555-2.93-8.065 0-3.588.889-6.35 2.681-8.3s4.223-2.932 7.402-2.932c3.007 0 5.36.889 6.997 2.605 1.62 1.716 2.524 4.071 2.524 7.082v2.87H40.19c.078 1.623.576 2.933 1.465 3.916.888.983 2.197 1.389 3.817 1.389 1.31 0 2.525-.156 3.662-.406s2.353-.733 3.584-1.31v4.477c-1.06.483-2.119.889-3.256 1.139-1.138.234-2.525.39-4.223.39m-.81-17.987c-1.216 0-2.198.405-2.93 1.139-.733.733-1.138 1.872-1.216 3.338h8.135c0-1.466-.406-2.527-1.138-3.338-.732-.812-1.636-1.14-2.852-1.14M77.2 39.315v2.933l-3.335.889c.655.983.888 2.028.888 3.182 0 2.278-.81 4.072-2.353 5.367-1.542 1.31-3.817 1.95-6.669 1.95l-1.06-.078-.888-.078c-.576.483-.888.982-.888 1.544q0 1.217 3.179 1.217h3.662c2.353 0 4.145.483 5.36 1.544s1.87 2.45 1.87 4.4c0 2.527-1.06 4.399-3.085 5.787S68.83 70 64.936 70c-3.007 0-5.204-.484-6.825-1.544-1.62-1.061-2.353-2.528-2.353-4.4 0-1.31.405-2.355 1.215-3.26.81-.89 1.948-1.466 3.491-1.872a3.73 3.73 0 0 1-1.543-1.217c-.405-.577-.654-1.217-.654-1.872 0-.811.25-1.466.732-2.028.483-.577 1.138-1.06 2.026-1.622-1.138-.484-2.026-1.217-2.68-2.356s-.982-2.355-.982-3.744c0-2.355.732-4.15 2.275-5.366 1.543-1.217 3.662-1.872 6.514-1.872.576 0 1.309.078 2.119.156s1.387.156 1.543.25h7.402v.062zm-16.424 24.43c0 .81.405 1.466 1.137 1.871.733.406 1.87.656 3.257.656 2.12 0 3.74-.328 4.877-.89 1.138-.577 1.792-1.388 1.792-2.355 0-.811-.327-1.389-1.06-1.623-.732-.327-1.791-.483-3.256-.483h-3.007c-1.06 0-1.948.25-2.68.733-.733.484-1.06 1.186-1.06 2.09m2.103-17.426c0 1.139.25 2.028.81 2.761.577.734 1.31.983 2.447.983 1.06 0 1.87-.327 2.447-.983.576-.655.732-1.622.732-2.76 0-2.606-1.06-3.823-3.179-3.823-2.197-.015-3.257 1.295-3.257 3.822M90.367 61.046c-3.412 0-6.093-.983-8.056-2.855-1.948-1.872-2.93-4.555-2.93-8.065 0-3.588.889-6.35 2.68-8.3 1.793-1.95 4.224-2.932 7.402-2.932 3.008 0 5.361.889 6.997 2.605S99 45.586 99 48.597v2.855H85.256c.078 1.622.577 2.932 1.465 3.915s2.197 1.389 3.818 1.389c1.309 0 2.524-.156 3.662-.406s2.353-.733 3.584-1.31v4.477c-1.06.483-2.12.889-3.257 1.139-1.138.234-2.447.39-4.16.39m-.81-17.987c-1.215 0-2.197.405-2.93 1.139-.732.733-1.137 1.872-1.215 3.338h8.134c0-1.466-.405-2.527-1.137-3.338-.733-.812-1.62-1.14-2.852-1.14"/></svg>
